X:5613
T:Gale Force
R:strathspey
C:Paul S. Cranford
O:20th Century Cape Breton
D:The Lighthouse, Cranford Publications
B:The Lighthouse Collection, ISBN 0-9691181-5-5
N:Contacts ...
N:..... Cranford Publications <http://www.cranfordpub.com>
Z:This abc transcription is for personal use only,
Z:provided this notice remains attached.
Z:Used by permission of the composer and publisher.
Z:Paul Stewart Cranford <psc@cranfordpub.com>
Q:244
L:1/8
M:C
K:Eaeo
D<EE>D F<E E2|A<BB>A d<BB>d|e<dd>B A<FF>d|F<EE>D F<E E2:|!
|:e<BB>g e<B g2| a<ff>a e<d B2|e<Bg>e d<Be>d|B>AA<d F<E E2:|!


